svgs/sharp-light/lock-keyhole-open.svg

<svg xmlns="http://www.w3.org/2000/svg" viewBox="0 0 576 512"><!--! Font Awesome Pro 6.6.0 by @fontawesome - https://fontawesome.com License - https://fontawesome.com/license (Commercial License) Copyright 2024 Fonticons, Inc. --><path d="M448 32c-53 0-96 43-96 96l0 64 64 0 32 0 0 32 0 256 0 32-32 0L32 512 0 512l0-32L0 224l0-32 32 0 288 0 0-64C320 57.3 377.3 0 448 0s128 57.3 128 128l0 80 0 16-32 0 0-16 0-80c0-53-43-96-96-96zM32 224l0 256 384 0 0-256-80 0L32 224zM264 368l-80 0-16 0 0-32 16 0 80 0 16 0 0 32-16 0z"/></svg>

<svg xmlns="http://www.w3.org/2000/svg" viewBox="0 0 576 512"><!--! Font Awesome Pro 6.4.0 by @fontawesome - https://fontawesome.com License - https://fontawesome.com/license (Commercial License) Copyright 2023 Fonticons, Inc. --><path d="M448 32c-53 0-96 43-96 96v64h64 32v32V480v32H416 32 0V480 224 192H32 320V128C320 57.3 377.3 0 448 0s128 57.3 128 128v80 16H544V208 128c0-53-43-96-96-96zM32 224V480H416V224H336 32zM264 368H184 168V336h16 80 16v32H264z"/></svg>
